icons/1_Primary/Mollie.svg

<svg width="1024" height="1024" fill="none" xmlns="http://www.w3.org/2000/svg"><g clip-path="url(#a)"><path d="M512 1024c282.77 0 512-229.23 512-512S794.77 0 512 0 0 229.23 0 512s229.23 512 512 512Z" fill="#56595B"/><path d="M465 452a60.648 60.648 0 0 0-59.485 72.482A60.65 60.65 0 0 0 525.65 512.65 60.719 60.719 0 0 0 465 452Zm0 92.61a31.903 31.903 0 0 1-29.472-19.692 31.903 31.903 0 0 1 23.249-43.495 31.903 31.903 0 0 1 32.747 13.564 31.903 31.903 0 0 1 5.376 17.723A31.94 31.94 0 0 1 465 544.6v.01ZM666.79 431a18.91 18.91 0 1 0 0-37.82 18.91 18.91 0 0 0 0 37.82ZM341.2 452c-1.58-.13-3.09-.19-4.67-.19a52.697 52.697 0 0 0-38.46 16.58 52.584 52.584 0 0 0-26.863-15.317 52.59 52.59 0 0 0-64.057 51.317v66.39h28.37v-65.52c0-12 9.9-23.14 21.56-24.33.82-.06 1.64-.13 2.4-.13a24 24 0 0 1 23.9 23.83v66.2h29v-65.7c0-12 9.84-23.07 21.56-24.27.82-.06 1.64-.13 2.4-.13a23.998 23.998 0 0 1 24 23.7v66.39h29v-65.56a53.84 53.84 0 0 0-13.81-36A51.727 51.727 0 0 0 341.2 452Zm229.12-56h-29v174.95h29V396Zm55.48 0h-29v174.95h29V396Zm55.48 58.88h-29v116h29v-116Zm135.56 55A58.003 58.003 0 0 0 800 469a56.718 56.718 0 0 0-40.6-17.15h-.76a60.682 60.682 0 0 0 .82 121.36h.06a60.994 60.994 0 0 0 52.21-29.76l1.39-2.33-24-11.79-1.2 2a32.61 32.61 0 0 1-59.33-8.07h88.21l.04-13.38Zm-58.57-31.71a31.121 31.121 0 0 1 29.26 21.06h-58.45a31.004 31.004 0 0 1 29.19-21.02v-.04Z" fill="#fff"/></g><defs><clipPath id="a"><path fill="#fff" d="M0 0h1024v1024H0z"/></clipPath></defs></svg>

<svg width="1024" height="1024" viewBox="0 0 1024 1024" fill="none" xmlns="http://www.w3.org/2000/svg">
<g clip-path="url(#clip0_2_2829)">
<path d="M512 1024C794.77 1024 1024 794.77 1024 512C1024 229.23 794.77 0 512 0C229.23 0 0 229.23 0 512C0 794.77 229.23 1024 512 1024Z" fill="#56595B"/>
<path d="M465 452C453.004 452 441.278 455.557 431.305 462.221C421.331 468.886 413.557 478.358 408.967 489.44C404.376 500.523 403.175 512.717 405.515 524.482C407.855 536.247 413.632 547.054 422.114 555.536C430.596 564.018 441.403 569.794 453.168 572.135C464.933 574.475 477.127 573.274 488.21 568.683C499.292 564.093 508.764 556.319 515.429 546.345C522.093 536.371 525.65 524.645 525.65 512.65C525.631 496.57 519.236 481.154 507.865 469.784C496.495 458.414 481.08 452.018 465 452ZM465 544.61C458.691 544.61 452.523 542.739 447.277 539.234C442.031 535.729 437.943 530.746 435.528 524.918C433.114 519.089 432.482 512.675 433.713 506.487C434.944 500.299 437.982 494.615 442.443 490.153C446.904 485.692 452.589 482.654 458.777 481.423C464.965 480.192 471.379 480.824 477.208 483.238C483.036 485.653 488.019 489.741 491.524 494.987C495.029 500.233 496.9 506.401 496.9 512.71C496.887 521.165 493.521 529.271 487.541 535.248C481.562 541.226 473.455 544.589 465 544.6V544.61ZM666.79 431C670.53 431 674.186 429.891 677.296 427.813C680.405 425.735 682.829 422.782 684.26 419.326C685.692 415.871 686.066 412.069 685.337 408.401C684.607 404.733 682.806 401.363 680.161 398.719C677.517 396.074 674.147 394.273 670.479 393.543C666.811 392.814 663.009 393.188 659.553 394.619C656.098 396.051 653.145 398.474 651.067 401.584C648.989 404.694 647.88 408.35 647.88 412.09C647.88 417.105 649.872 421.915 653.419 425.461C656.965 429.008 661.775 431 666.79 431ZM341.2 452C339.62 451.87 338.11 451.81 336.53 451.81C329.326 451.798 322.197 453.263 315.582 456.114C308.967 458.966 303.007 463.144 298.07 468.39C290.853 460.707 281.494 455.371 271.207 453.073C260.92 450.774 250.18 451.62 240.379 455.501C230.579 459.381 222.171 466.117 216.245 474.835C210.32 483.552 207.151 493.849 207.15 504.39V570.78H235.52V505.26C235.52 493.26 245.42 482.12 257.08 480.93C257.9 480.87 258.72 480.8 259.48 480.8C265.798 480.826 271.852 483.343 276.326 487.804C280.801 492.266 283.335 498.312 283.38 504.63V570.83H312.38V505.13C312.38 493.13 322.22 482.06 333.94 480.86C334.76 480.8 335.58 480.73 336.34 480.73C342.653 480.729 348.713 483.217 353.205 487.653C357.698 492.089 360.261 498.117 360.34 504.43V570.82H389.34V505.26C389.339 491.967 384.42 479.144 375.53 469.26C366.727 459.312 354.435 453.132 341.2 452ZM570.32 396H541.32V570.95H570.32V396ZM625.8 396H596.8V570.95H625.8V396ZM681.28 454.88H652.28V570.88H681.28V454.88ZM816.84 509.88C816.844 494.564 810.79 479.869 800 469C794.719 463.577 788.406 459.266 781.433 456.321C774.461 453.376 766.969 451.855 759.4 451.85H758.64C742.547 451.959 727.156 458.456 715.853 469.913C704.55 481.369 698.261 496.847 698.37 512.94C698.479 529.033 704.976 544.424 716.433 555.727C727.889 567.03 743.367 573.319 759.46 573.21H759.52C770.051 573.178 780.395 570.421 789.544 565.205C798.693 559.99 806.337 552.495 811.73 543.45L813.12 541.12L789.12 529.33L787.92 531.33C784.631 536.782 779.819 541.151 774.076 543.9C768.333 546.649 761.911 547.656 755.602 546.798C749.293 545.94 743.374 543.254 738.574 539.071C733.774 534.888 730.303 529.392 728.59 523.26H816.8L816.84 509.88ZM758.27 478.17C764.73 478.209 771.017 480.258 776.26 484.031C781.503 487.805 785.442 493.117 787.53 499.23H729.08C731.155 493.126 735.083 487.821 740.314 484.053C745.546 480.286 751.823 478.243 758.27 478.21V478.17Z" fill="white"/>
</g>
<defs>
<clipPath id="clip0_2_2829">
<rect width="1024" height="1024" fill="white"/>
</clipPath>
</defs>
</svg>
